X: 1
T: An Dro
O: from Trouz Bras
S: Daniel Salomon 2013-1-21
Q: 1/2=90
M: 4/4
L: 1/8
K: Am
|: "Am"e2az A4 | "Am"ez ed "(G)"B2c2 | "G"dzd2 B2G2 |1,3 "(Am)"ABcd "E7"e4 :|2,4 "E7"ABcB "Am"A4 :|
|: "Am(F)"A4 ABcB | Az A2 "(G)"B2c2 | "G"dzd2 B2G2 |1,3 "(Am)"ABcd "E7"e4 :|2,4 "E7"ABcB "Am"A4 :|
